src/images/dist/icons/tech-icon-2.svg

<svg width="36" height="36" viewBox="0 0 36 36" fill="none" xmlns="http://www.w3.org/2000/svg">
<path d="M2.99219 4.98438V5.48438H3.49219V4.98438H2.99219ZM2.99219 30.5156C2.71605 30.5156 2.49219 30.7395 2.49219 31.0156C2.49219 31.2918 2.71605 31.5156 2.99219 31.5156V30.5156ZM6.97656 31.5156C7.2527 31.5156 7.47656 31.2918 7.47656 31.0156C7.47656 30.7395 7.2527 30.5156 6.97656 30.5156V31.5156ZM2.99219 26.5312C2.71605 26.5312 2.49219 26.7551 2.49219 27.0312C2.49219 27.3074 2.71605 27.5312 2.99219 27.5312V26.5312ZM6.97656 27.5312C7.2527 27.5312 7.47656 27.3074 7.47656 27.0312C7.47656 26.7551 7.2527 26.5312 6.97656 26.5312V27.5312ZM2.99219 22.5469C2.71605 22.5469 2.49219 22.7707 2.49219 23.0469C2.49219 23.323 2.71605 23.5469 2.99219 23.5469V22.5469ZM6.97656 23.5469C7.2527 23.5469 7.47656 23.323 7.47656 23.0469C7.47656 22.7707 7.2527 22.5469 6.97656 22.5469V23.5469ZM2.99219 19.0938C2.71605 19.0938 2.49219 19.3176 2.49219 19.5938C2.49219 19.8699 2.71605 20.0938 2.99219 20.0938V19.0938ZM6.97656 20.0938C7.2527 20.0938 7.47656 19.8699 7.47656 19.5938C7.47656 19.3176 7.2527 19.0938 6.97656 19.0938V20.0938ZM2.99219 15.3418C2.71605 15.3418 2.49219 15.5657 2.49219 15.8418C2.49219 16.1179 2.71605 16.3418 2.99219 16.3418V15.3418ZM6.97656 16.3418C7.2527 16.3418 7.47656 16.1179 7.47656 15.8418C7.47656 15.5657 7.2527 15.3418 6.97656 15.3418V16.3418ZM2.99219 11.5898C2.71605 11.5898 2.49219 11.8137 2.49219 12.0898C2.49219 12.366 2.71605 12.5898 2.99219 12.5898V11.5898ZM6.97656 12.5898C7.2527 12.5898 7.47656 12.366 7.47656 12.0898C7.47656 11.8137 7.2527 11.5898 6.97656 11.5898V12.5898ZM34.0039 20.5547H20.9219V21.5547H34.0039V20.5547ZM21.4219 21.0547V5.98047H20.4219V21.0547H21.4219ZM21.4219 5.98047C21.4219 5.15422 20.752 4.48438 19.9258 4.48438V5.48438C20.1997 5.48438 20.4219 5.7065 20.4219 5.98047H21.4219ZM19.9258 4.48438H18.9297V5.48438H19.9258V4.48438ZM19.4297 4.98438V1.99609H18.4297V4.98438H19.4297ZM19.4297 1.99609C19.4297 1.16984 18.7598 0.5 17.9336 0.5V1.5C18.2076 1.5 18.4297 1.72213 18.4297 1.99609H19.4297ZM17.9336 0.5H3.98828V1.5H17.9336V0.5ZM3.98828 0.5C3.16203 0.5 2.49219 1.16984 2.49219 1.99609H3.49219C3.49219 1.72213 3.71431 1.5 3.98828 1.5V0.5ZM2.49219 1.99609V4.98438H3.49219V1.99609H2.49219ZM2.99219 4.48438H1.99609V5.48438H2.99219V4.48438ZM1.99609 4.48438C1.16984 4.48438 0.5 5.15422 0.5 5.98047H1.5C1.5 5.7065 1.72213 5.48438 1.99609 5.48438V4.48438ZM0.5 5.98047V34.0039H1.5V5.98047H0.5ZM0.5 34.0039C0.5 34.8302 1.16984 35.5 1.99609 35.5V34.5C1.72213 34.5 1.5 34.2779 1.5 34.0039H0.5ZM1.99609 35.5H34.0039V34.5H1.99609V35.5ZM34.0039 35.5C34.8302 35.5 35.5 34.8302 35.5 34.0039H34.5C34.5 34.2779 34.2779 34.5 34.0039 34.5V35.5ZM35.5 34.0039V22.0508H34.5V34.0039H35.5ZM35.5 22.0508C35.5 21.2245 34.8302 20.5547 34.0039 20.5547V21.5547C34.2779 21.5547 34.5 21.7768 34.5 22.0508H35.5ZM18.9297 4.48438H3.1582V5.48438H18.9297V4.48438ZM2.99219 31.5156H6.97656V30.5156H2.99219V31.5156ZM2.99219 27.5312H6.97656V26.5312H2.99219V27.5312ZM2.99219 23.5469H6.97656V22.5469H2.99219V23.5469ZM2.99219 20.0938H6.97656V19.0938H2.99219V20.0938ZM2.99219 16.3418H6.97656V15.3418H2.99219V16.3418ZM2.99219 12.5898H6.97656V11.5898H2.99219V12.5898ZM9.46875 35V10.0977H8.46875V35H9.46875ZM9.46875 10.0977C9.46875 9.2714 8.79891 8.60156 7.97266 8.60156V9.60156C8.24662 9.60156 8.46875 9.82369 8.46875 10.0977H9.46875ZM7.97266 8.60156H1V9.60156H7.97266V8.60156ZM21.4219 35V21.0547H20.4219V35H21.4219Z" fill="#211E1E"/>
</svg>

<svg width="36" height="36" fill="none" xmlns="http://www.w3.org/2000/svg"><path d="M2.992 4.984v.5h.5v-.5h-.5zm0 25.532a.5.5 0 000 1v-1zm3.985 1a.5.5 0 100-1v1zM2.992 26.53a.5.5 0 000 1v-1zm3.985 1a.5.5 0 100-1v1zm-3.985-4.984a.5.5 0 100 1v-1zm3.985 1a.5.5 0 000-1v1zm-3.985-4.453a.5.5 0 100 1v-1zm3.985 1a.5.5 0 000-1v1zm-3.985-4.752a.5.5 0 000 1v-1zm3.985 1a.5.5 0 000-1v1zM2.992 11.59a.5.5 0 000 1v-1zm3.985 1a.5.5 0 100-1v1zm27.027 7.965H20.922v1h13.082v-1zm-12.582.5V5.98h-1v15.075h1zm0-15.075c0-.826-.67-1.496-1.496-1.496v1c.274 0 .496.223.496.496h1zm-1.496-1.496h-.996v1h.996v-1zm-.496.5V1.996h-1v2.988h1zm0-2.988C19.43 1.17 18.76.5 17.934.5v1c.274 0 .496.222.496.496h1zM17.934.5H3.988v1h13.946v-1zM3.988.5c-.826 0-1.496.67-1.496 1.496h1c0-.274.222-.496.496-.496v-1zM2.492 1.996v2.988h1V1.996h-1zm.5 2.488h-.996v1h.996v-1zm-.996 0C1.17 4.484.5 5.154.5 5.98h1c0-.274.222-.496.496-.496v-1zM.5 5.98v28.024h1V5.98h-1zm0 28.024c0 .826.67 1.496 1.496 1.496v-1a.496.496 0 01-.496-.496h-1zM1.996 35.5h32.008v-1H1.996v1zm32.008 0c.826 0 1.496-.67 1.496-1.496h-1a.496.496 0 01-.496.496v1zm1.496-1.496V22.05h-1v11.953h1zm0-11.953c0-.826-.67-1.496-1.496-1.496v1c.274 0 .496.222.496.496h1zM18.93 4.484H3.158v1H18.93v-1zM2.992 31.516h3.985v-1H2.992v1zm0-3.985h3.985v-1H2.992v1zm0-3.984h3.985v-1H2.992v1zm0-3.453h3.985v-1H2.992v1zm0-3.752h3.985v-1H2.992v1zm0-3.752h3.985v-1H2.992v1zM9.47 35V10.098h-1V35h1zm0-24.902c0-.827-.67-1.496-1.496-1.496v1c.274 0 .496.222.496.496h1zM7.973 8.602H1v1h6.973v-1zM21.422 35V21.055h-1V35h1z" fill="#211E1E"/></svg>
